assets/images/svg/varify.svg

<svg width="14" height="14" viewBox="0 0 14 14" fill="none" xmlns="http://www.w3.org/2000/svg">
<path d="M13.4173 7.0001L11.994 5.37844L12.1923 3.23177L10.0865 2.75344L8.98398 0.898438L7.00065 1.7501L5.01732 0.898438L3.91482 2.75344L1.80898 3.22594L2.00732 5.3726L0.583984 7.0001L2.00732 8.62177L1.80898 10.7743L3.91482 11.2526L5.01732 13.1076L7.00065 12.2501L8.98398 13.1018L10.0865 11.2468L12.1923 10.7684L11.994 8.62177L13.4173 7.0001ZM5.83398 9.91677L3.50065 7.58344L4.32315 6.76094L5.83398 8.26594L9.67815 4.42177L10.5007 5.2501L5.83398 9.91677Z" fill="#27AF4D"/>
</svg>

<svg xmlns="http://www.w3.org/2000/svg" width="14" height="14" fill="none" viewBox="0 0 14 14"><path fill="#27af4d" d="m13.417 7-1.423-1.622.198-2.146-2.106-.479L8.984.898l-1.983.852L5.017.898 3.915 2.753l-2.106.473.198 2.147L.584 7l1.423 1.622-.198 2.152 2.106.479 1.102 1.855 1.984-.858 1.983.852 1.102-1.855 2.106-.479-.198-2.146zM5.834 9.917 3.501 7.583l.822-.822 1.511 1.505 3.844-3.844.823.828z"/></svg>
